X:1
T:Title
%%score ( 1 2 ) { 3 | 4 }
L:1/8
Q:1/4=90
M:3/4
K:F
V:1 treble nm="Grand Piano, Soprano"
V:2 treble 
V:3 bass nm="Choir Pad, He�ll Come for Me"
V:4 bass 
V:1
 [CA][CA] [CA] [CA]3 | [A,F][G,E] [B,G] [A,F]3 | [A,F][G,E] [A,F] [DB]3 | [^CB][CB] [=CA] [CA]3 | %4
w: By~C.~W.~James * * *||||
 [CA][CA] [B,G] [A,F]3 | [A,F][B,G] [CA] [DB]3 | [Fd][Ec] [DB] [CA]3 | [A,F][B,G] [CA] [A,F]3 | %8
w: ||||
[M:4/4] z2 z A- A4 | z2 z F- F2 z2 | z2 z c- c4 | z2 z A- A4 | z2 z f- f4 | z2 z d- d4 | %14
w: ||||||
 [df][ce][Bd][Ac]- [Ac]4 | F[EG][EA]F z EDC- | C6 z2 |] %17
w: |||
V:2
 x6 | x6 | x6 | x6 | x6 | x6 | x6 | x6 |[M:4/4] AA .A2 ^CCCC | FE .G2 .D2 E[DF] | cc .c2 GGFE | %11
 [EG][FA][GB]F FFFF | ff .f2 AAAA | cB .A2 BBBB | x8 | x8 | x8 |] %17
V:3
 z2 z F, C,F,, | z2 z F, C,F,, | z2 z .F,3 | z2 z F, C,F,, | E,E, F, D,3 | C,B,, A,, G,,3 | %6
 G,,A,, B,, C,3 | C,C, C, C,2 F, |[M:4/4] z4 E,E,E,E, | z4 F,A,G,F, | z4 B,B,A,G, | %11
 C[K:treble]CCC CCCC | z4 CCCC | z4 FFFF | z4 FFFF | A,[K:bass]B,CA, DCB,A,- | A,6 z2 |] %17
V:4
 z2 z .F,,3 | z2 z .F,,3 | z2 z B,, A,,G,, | z2 z .F,,3 | C,,C,, ^C,, D,,3 | C,,B,,, A,,, G,,,3 | %6
 G,,,A,,, B,,, C,,3 | C,,C,, C,, F,,3 |[M:4/4] z4 A,,A,,A,,A,, | z4 D,D,D,D, | z4 C,C,C,C, | %11
 C,C,C,F, F,F,F,F, | z4 F,F,F,F, | z4 B,,B,,B,,B,, | z4 B,,B,,B,,B,, | D,C,C,[F,,F,]- [F,,F,]4- | %16
 [F,,F,]6 z2 |] %17

